markup/images/icon39.svg

<svg xmlns="http://www.w3.org/2000/svg" width="35" height="36"><path fill-rule="evenodd" fill="#FFF" d="M34.983 12.774l-.921-3.641a.538.538 0 0 0-.95-.191l-3.036 4.001-1.138 1.425-5.764-3.008-.007-.003-.027-.013-.028-.011a.332.332 0 0 0-.029-.01l-.029-.008a1.442 1.442 0 0 1-.06-.011 2.752 2.752 0 0 0-.061-.005H22.363l-1.146-6.721a.588.588 0 0 0-.045-.14l.005-.064v-.001l.08-.895a3.193 3.193 0 0 0-.833-2.44A3.238 3.238 0 0 0 18.049 0h-1.143c-.901 0-1.766.378-2.375 1.038a3.193 3.193 0 0 0-.833 2.44l.104 1.168-1.135 6.653h-.525a.53.53 0 0 0-.317.056l-5.764 3.012-1.136-1.423-3.038-4.002a.54.54 0 0 0-.949.191l-.922 3.641a.53.53 0 0 0 .101.462l1.863 2.326.001.001 1.71 2.141a2.695 2.695 0 0 0 3.576.586l5.166-2.889.791 3.096c.167.651.196 1.317.088 1.98l-.731 4.488-4.17-1.323a1.776 1.776 0 0 0-2.226 1.141l-.515 1.602a1.94 1.94 0 0 0 1.267 2.439l1.655.525-.025.008a.533.533 0 0 0-.348.67l1.8 5.602a.537.537 0 0 0 .675.346l1.488-.472a.534.534 0 0 0 .348-.67l-.316-.984 5.286-1.676 5.285 1.676-.315.984a.534.534 0 0 0 .348.67l1.488.472a.536.536 0 0 0 .674-.346l1.801-5.602a.532.532 0 0 0-.348-.67l-.026-.008 1.625-.515a1.973 1.973 0 0 0 1.288-2.48l-.496-1.544a1.804 1.804 0 0 0-2.262-1.159l-4.124 1.307-.637-3.887a7.78 7.78 0 0 1 .139-3.193l.62-2.436 5.174 2.849a2.693 2.693 0 0 0 3.574-.587l1.711-2.141v-.001l1.864-2.327a.527.527 0 0 0 .1-.461zm-33.861.004l.583-2.304 1.101 1.45-1.533 1.042-.151-.188zm5.604 4.591a1.625 1.625 0 0 1-2.194-.328l-2.588-3.24 1.488-1.01 2.065 2.585c.16.201.442.26.67.141l5.554-2.903.438 1.716-5.433 3.039zm14.026-9.133l.522 3.063h-1.702V9.644a2.652 2.652 0 0 0 1.18-1.408zM17.5 13.67c-.834 0-1.54-.55-1.771-1.305h.236a.536.536 0 0 0 .53-.613.542.542 0 0 0 .007-.081V9.989c.069.006.14.009.211.009h1.53c.086 0 .171-.004.255-.012v1.685c0 .027.003.054.007.081a.535.535 0 0 0 .53.613h.236A1.853 1.853 0 0 1 17.5 13.67zm.305 12.618zm.437-17.356h-1.529a1.584 1.584 0 0 1-1.577-1.39l-.27-3.05c.91-.122 1.503-.519 1.86-.871.537.477 1.564 1.099 3.333 1.213l-.24 2.709a1.584 1.584 0 0 1-1.577 1.389zm-2.919-7.174a2.132 2.132 0 0 1 1.583-.692h1.143c.61 0 1.172.246 1.583.692a2.1 2.1 0 0 1 .555 1.627l-.034.386c-2.23-.134-2.938-1.164-2.993-1.249a.528.528 0 0 0-.946.038c-.033.062-.402.708-1.442.869l-.004-.044a2.103 2.103 0 0 1 .555-1.627zm-1.068 6.613c.233.556.65 1.013 1.173 1.299v1.629h-1.672l.499-2.928zm-1.007 5.883l-.482-1.889H14.626a2.921 2.921 0 0 0 2.331 2.321c-.012.995-.039 3.361-.055 5.715a389.255 389.255 0 0 0-.008 4.304c.005.793.011 1.301.026 1.635l-3.305-1.047.757-4.646a5.857 5.857 0 0 0-.107-2.412l-1.017-3.981zm-2.369 20.542l-1.474-4.585.465-.148 1.474 4.586-.465.147zm1.009-1.963l-.873-2.716 4.72 1.497-3.847 1.219zm-1.266-3.96a.529.529 0 0 0-.178-.056l-3.181-1.009a.87.87 0 0 1-.571-1.099l.515-1.602a.686.686 0 0 1 .345-.404.69.69 0 0 1 .532-.045l16.022 5.081-.994 3.095-12.49-3.961zm13.499 5.923l-.466-.147 1.474-4.586.466.148-1.474 4.585zm-2.01-8.614a.581.581 0 0 0 .12-.039l4.658-1.476a.726.726 0 0 1 .912.467l.496 1.544a.906.906 0 0 1-.592 1.14l-3.063.971-5.377-1.705 2.846-.902zM21.69 14.51l-.791 3.107a8.833 8.833 0 0 0-.157 3.626l.662 4.043-3.408 1.081c-.065-1.339-.017-7.509.034-11.679a2.922 2.922 0 0 0 2.344-2.323H22.235l-.545 2.145zm10.497.378l-.008.01-1.712 2.143a1.623 1.623 0 0 1-2.162.347c-.011-.008-.022-.014-.034-.021l-5.439-2.994.446-1.754 5.554 2.898a.54.54 0 0 0 .67-.14l2.066-2.586 1.487 1.011-.868 1.086zm1.54-1.922l-1.533-1.042 1.1-1.45.583 2.304-.15.188z"/></svg>

<svg 
 xmlns="http://www.w3.org/2000/svg"
 xmlns:xlink="http://www.w3.org/1999/xlink"
 width="35px" height="36px">
<path fill-rule="evenodd"  fill="rgb(255, 255, 255)"
 d="M34.983,12.774 L34.062,9.133 C34.011,8.934 33.850,8.781 33.648,8.740 C33.445,8.700 33.237,8.778 33.112,8.942 L30.076,12.943 L28.938,14.368 L23.174,11.360 C23.172,11.359 23.169,11.358 23.167,11.357 C23.158,11.352 23.149,11.348 23.140,11.344 C23.130,11.340 23.121,11.336 23.112,11.333 C23.102,11.329 23.093,11.326 23.083,11.323 C23.073,11.321 23.064,11.317 23.054,11.315 C23.044,11.313 23.034,11.311 23.025,11.309 C23.015,11.307 23.004,11.305 22.994,11.304 C22.985,11.303 22.975,11.302 22.965,11.301 C22.955,11.301 22.944,11.300 22.933,11.299 C22.930,11.299 22.928,11.299 22.925,11.299 L22.363,11.299 L21.217,4.578 C21.208,4.528 21.192,4.482 21.172,4.438 L21.177,4.374 C21.177,4.374 21.177,4.374 21.177,4.373 L21.257,3.478 C21.336,2.587 21.032,1.698 20.424,1.038 C19.815,0.378 18.950,-0.000 18.049,-0.000 L16.906,-0.000 C16.005,-0.000 15.140,0.378 14.531,1.038 C13.923,1.698 13.619,2.587 13.698,3.478 L13.802,4.646 L12.667,11.299 L12.142,11.299 C12.034,11.285 11.923,11.303 11.825,11.355 L6.061,14.367 L4.925,12.944 L1.887,8.942 C1.763,8.778 1.555,8.700 1.352,8.740 C1.149,8.781 0.988,8.934 0.938,9.133 L0.016,12.774 C-0.025,12.935 0.013,13.106 0.117,13.236 L1.980,15.562 C1.980,15.563 1.981,15.563 1.981,15.563 L3.691,17.704 C4.224,18.370 5.005,18.722 5.801,18.722 C6.304,18.722 6.813,18.582 7.267,18.290 L12.433,15.401 L13.224,18.497 C13.391,19.148 13.420,19.814 13.312,20.477 L12.581,24.965 L8.411,23.642 C7.480,23.347 6.482,23.859 6.185,24.783 L5.670,26.385 C5.342,27.404 5.911,28.499 6.937,28.824 L8.592,29.349 L8.567,29.357 C8.285,29.447 8.129,29.747 8.219,30.027 L10.019,35.629 C10.092,35.855 10.303,36.000 10.530,36.000 C10.585,36.000 10.640,35.992 10.694,35.975 L12.182,35.503 C12.318,35.460 12.431,35.365 12.496,35.239 C12.561,35.114 12.573,34.967 12.530,34.833 L12.214,33.849 L17.500,32.173 L22.785,33.849 L22.470,34.833 C22.426,34.967 22.439,35.114 22.504,35.239 C22.569,35.365 22.682,35.460 22.818,35.503 L24.306,35.975 C24.360,35.992 24.415,36.000 24.469,36.000 C24.697,36.000 24.908,35.855 24.980,35.629 L26.781,30.027 C26.871,29.746 26.715,29.446 26.433,29.357 L26.407,29.349 L28.032,28.834 C29.075,28.503 29.653,27.391 29.320,26.354 L28.824,24.810 C28.522,23.871 27.508,23.351 26.562,23.651 L22.438,24.958 L21.801,21.071 C21.626,20.002 21.673,18.928 21.940,17.878 L22.560,15.442 L27.734,18.291 C28.188,18.582 28.696,18.722 29.199,18.722 C29.994,18.722 30.776,18.370 31.308,17.704 L33.019,15.563 C33.019,15.562 33.019,15.562 33.019,15.562 L34.883,13.235 C34.987,13.106 35.024,12.935 34.983,12.774 ZM1.122,12.778 L1.705,10.474 L2.806,11.924 L1.273,12.966 L1.122,12.778 ZM6.726,17.369 C6.715,17.375 6.705,17.381 6.695,17.388 C5.987,17.848 5.058,17.699 4.532,17.041 L1.944,13.801 L3.432,12.791 L5.497,15.376 C5.657,15.577 5.939,15.636 6.167,15.517 L11.721,12.614 L12.159,14.330 L6.726,17.369 ZM20.752,8.236 L21.274,11.299 L19.572,11.299 L19.572,9.644 C20.114,9.333 20.538,8.837 20.752,8.236 ZM17.500,13.670 C16.666,13.670 15.960,13.120 15.729,12.365 L15.965,12.365 C16.261,12.365 16.502,12.126 16.502,11.832 C16.502,11.805 16.499,11.778 16.495,11.752 C16.499,11.725 16.502,11.699 16.502,11.671 L16.502,9.989 C16.571,9.995 16.642,9.998 16.713,9.998 L18.243,9.998 C18.329,9.998 18.414,9.994 18.498,9.986 L18.498,11.671 C18.498,11.698 18.501,11.725 18.505,11.752 C18.501,11.778 18.498,11.805 18.498,11.832 C18.498,12.126 18.738,12.365 19.035,12.365 L19.271,12.365 C19.040,13.120 18.333,13.670 17.500,13.670 ZM17.805,26.288 C17.740,26.244 17.665,26.213 17.584,26.200 C17.670,26.213 17.744,26.245 17.805,26.288 ZM18.242,8.932 L16.713,8.932 C15.908,8.932 15.232,8.335 15.136,7.542 L14.866,4.492 C15.776,4.370 16.369,3.973 16.726,3.621 C17.263,4.098 18.290,4.720 20.059,4.834 L19.819,7.543 C19.723,8.335 19.047,8.932 18.242,8.932 ZM15.323,1.758 C15.735,1.312 16.297,1.066 16.906,1.066 L18.049,1.066 C18.659,1.066 19.221,1.312 19.632,1.758 C20.043,2.204 20.241,2.782 20.187,3.385 L20.153,3.771 C17.923,3.637 17.215,2.607 17.160,2.522 C17.063,2.345 16.879,2.238 16.676,2.245 C16.472,2.253 16.297,2.375 16.214,2.560 C16.181,2.622 15.812,3.268 14.772,3.429 L14.768,3.385 C14.715,2.782 14.912,2.204 15.323,1.758 ZM14.255,8.371 C14.488,8.927 14.905,9.384 15.428,9.670 L15.428,11.299 L13.756,11.299 L14.255,8.371 ZM13.248,14.254 L12.766,12.365 L13.120,12.365 C13.120,12.365 13.121,12.365 13.121,12.365 C13.121,12.365 13.122,12.365 13.122,12.365 L14.626,12.365 C14.846,13.538 15.777,14.465 16.957,14.686 C16.945,15.681 16.918,18.047 16.902,20.401 C16.891,22.210 16.888,23.658 16.894,24.705 C16.899,25.498 16.905,26.006 16.920,26.340 L13.615,25.293 L14.372,20.647 C14.504,19.839 14.468,19.028 14.265,18.235 L13.248,14.254 ZM10.879,34.796 L9.405,30.211 L9.870,30.063 L11.344,34.649 L10.879,34.796 ZM11.888,32.833 L11.015,30.117 L15.735,31.614 L11.888,32.833 ZM10.622,28.873 C10.567,28.844 10.506,28.825 10.444,28.817 L7.263,27.808 C7.039,27.737 6.857,27.584 6.749,27.376 C6.641,27.169 6.621,26.932 6.692,26.709 L7.207,25.107 C7.264,24.931 7.386,24.787 7.552,24.703 C7.652,24.651 7.761,24.625 7.871,24.625 C7.942,24.625 8.014,24.636 8.084,24.658 L24.106,29.739 L23.112,32.834 L10.622,28.873 ZM24.121,34.796 L23.655,34.649 L25.129,30.063 L25.595,30.211 L24.121,34.796 ZM22.111,26.182 C22.153,26.173 22.194,26.160 22.231,26.143 L26.889,24.667 C27.270,24.545 27.679,24.755 27.801,25.134 L28.297,26.678 C28.450,27.155 28.185,27.666 27.705,27.818 L24.642,28.789 L19.265,27.084 L22.111,26.182 ZM21.690,14.510 C21.690,14.510 21.690,14.510 21.690,14.510 L20.899,17.617 C20.596,18.809 20.543,20.029 20.742,21.243 L21.404,25.286 L17.996,26.367 C17.931,25.028 17.979,18.858 18.030,14.688 C19.216,14.471 20.153,13.542 20.374,12.365 L21.907,12.365 C21.908,12.365 21.908,12.365 21.909,12.365 C21.909,12.365 21.909,12.365 21.910,12.365 L22.235,12.365 L21.690,14.510 ZM32.187,14.888 L32.179,14.898 C32.179,14.898 32.179,14.898 32.179,14.898 L30.467,17.041 C29.942,17.699 29.012,17.848 28.305,17.388 C28.294,17.380 28.283,17.374 28.271,17.367 L22.832,14.373 L23.278,12.619 L28.832,15.517 C29.061,15.636 29.342,15.577 29.502,15.377 L31.568,12.791 L33.055,13.802 L32.187,14.888 ZM33.727,12.966 L32.194,11.924 L33.294,10.474 L33.877,12.778 L33.727,12.966 Z"/>
</svg>
